img/icons/svg/icon__viber.svg

<svg width="22" height="22" viewBox="0 0 22 22" fill="none" xmlns="http://www.w3.org/2000/svg">
<g clip-path="url(#clip0)">
<path d="M11 2.28063C11.2389 2.45986 11.4479 2.47928 12.0726 2.51462C13.9029 2.61967 15.0635 3.01067 16.3545 3.95842C17.9348 5.11452 18.9263 6.72715 19.3021 8.75158C19.3988 9.27571 19.4466 9.7205 19.4792 10.3909C19.4989 10.8405 19.5145 11.0149 19.6168 11.2118C19.761 11.4804 20.0404 11.659 20.3645 11.6891C20.3964 11.6919 20.4283 11.6933 20.4599 11.6933C20.7483 11.6933 21.0159 11.5712 21.1868 11.3587C21.4138 11.0821 21.4135 10.8242 21.3913 10.2688C21.3262 8.54875 20.95 7.00335 20.2734 5.67565C19.7908 4.73104 19.3301 4.11226 18.512 3.31011C17.6395 2.46185 16.967 1.98728 15.9402 1.49676C14.8524 0.977547 14.0828 0.813225 12.9559 0.675633C12.7284 0.649634 12.3003 0.615673 12.0032 0.605964C11.4371 0.587237 11.216 0.602511 10.9546 0.834755C10.7543 1.01118 10.6451 1.27918 10.6541 1.57069C10.6631 1.86013 10.7885 2.11769 11 2.28063Z" fill="white"/>
<path d="M16.7052 9.7168C16.7052 10.2038 16.7454 10.6611 17.2255 10.8975C17.3572 10.9658 17.5288 11.0001 17.6962 11.0001C17.8449 11.0001 17.9899 10.9728 18.1004 10.9173C18.2946 10.8175 18.4904 10.6067 18.567 10.4161C18.6644 10.1703 18.6201 9.28908 18.5923 9.04054C18.4623 7.93022 18.0765 6.88193 17.4768 6.00942C16.3904 4.43111 14.7625 3.47674 12.6392 3.17276C11.9192 3.06669 11.3843 3.02923 11.0696 3.50969C10.8224 3.87473 10.854 4.34028 11.1458 4.66648C11.3785 4.93029 11.7116 4.98993 12.0063 5.01349C12.85 5.08003 13.795 5.35631 14.4145 5.71721L14.4155 5.71754C15.1362 6.1349 15.7328 6.74158 16.1415 7.47231C16.4996 8.11144 16.7052 8.92956 16.7052 9.7168Z" fill="white"/>
<path d="M14.8585 6.73952C14.3842 6.30517 13.8286 6.03304 13.111 5.8833C12.9467 5.84865 12.6679 5.81846 12.4946 5.80875C12.1958 5.79039 12.0728 5.79352 11.8603 5.89678C11.6034 6.02572 11.4235 6.26491 11.3659 6.55233C11.3087 6.83795 11.3819 7.12536 11.5691 7.34375C11.7854 7.59091 12.0069 7.65261 12.4537 7.70567C13.2004 7.79512 13.6209 8.04642 13.8587 8.54491C13.979 8.79933 14.0473 9.07805 14.0868 9.4788C14.1278 9.85424 14.2012 10.0951 14.4685 10.2927C14.6366 10.4196 14.8495 10.4824 15.0602 10.4824C15.2908 10.4824 15.5192 10.4071 15.6859 10.2584L15.688 10.257C16.0326 9.9454 16.0472 9.55887 15.9539 8.95569C15.8094 7.98954 15.4721 7.30593 14.8585 6.73952Z" fill="white"/>
<path d="M21.3982 17.3056C21.3812 16.922 21.2515 16.5789 21.0096 16.2827C20.7759 16.0027 19.2836 14.8037 18.6176 14.3405C18.0997 13.9823 17.2813 13.4779 16.8986 13.281C16.3332 12.9953 15.7647 12.9453 15.2052 13.1337C15.0828 13.1753 14.9954 13.2123 14.9133 13.256C14.6301 13.4071 14.4221 13.6452 14.0179 14.1503C13.5849 14.6814 13.4948 14.7847 13.4958 14.7847C13.4549 14.8097 13.3898 14.8449 13.3107 14.8815C12.9887 15.0306 12.4607 14.908 11.602 14.4828C10.8775 14.1267 10.2269 13.6695 9.49198 13.0009C8.86593 12.4342 8.23639 11.6991 7.88699 11.1288C7.40166 10.3377 7.10807 9.42224 7.10458 8.99709C7.10458 8.83152 7.176 8.59377 7.2533 8.46275L7.28726 8.42717C7.31014 8.40463 7.33544 8.38032 7.3701 8.34932C7.49075 8.23907 7.66543 8.0915 7.84742 7.9453C8.64612 7.30599 8.89916 7.0471 9.03436 6.56631C9.16504 6.12179 9.05032 5.57441 8.67313 4.84426C8.11119 3.75478 6.3294 1.43603 5.58583 0.947139C5.46347 0.86929 5.26206 0.764322 5.11959 0.715739C4.81455 0.606189 4.37639 0.568874 4.10389 0.627694C3.72674 0.706245 3.31282 0.947511 2.39941 1.62169C1.89888 1.99402 1.12724 2.72206 0.917826 3.07007C0.423844 3.91296 0.549696 4.64419 0.99757 5.86893C1.42432 7.03765 1.97168 8.2141 2.62235 9.36272L2.65631 9.42084C2.78736 9.65084 2.9215 9.88017 3.06226 10.1102L3.09866 10.1683C3.23836 10.3941 3.37981 10.6195 3.5278 10.8439L3.7611 11.1887C3.84812 11.3176 3.93477 11.4462 4.02455 11.5741C4.20171 11.8249 4.38333 12.0749 4.57158 12.3243C6.57834 14.9795 8.89019 17.1112 11.6388 18.8403L11.7515 18.9122C12.1505 19.1605 12.5751 19.4088 13.0133 19.6497L13.1845 19.7434C13.6379 19.9886 14.0688 20.2084 14.5018 20.4144L14.6366 20.4768C15.1479 20.7173 15.6156 20.9241 16.0655 21.1083C16.6101 21.3316 16.8621 21.4 17.2448 21.4C17.3128 21.4 17.3852 21.3979 17.4643 21.394C17.7111 21.382 17.9329 21.3447 18.143 21.2795C18.438 21.1886 18.7333 21.0361 19.0713 20.7991C19.1303 20.7579 19.1892 20.7159 19.2526 20.6684C19.3275 20.6124 19.4072 20.5437 19.488 20.4729C19.8732 20.1344 20.3151 19.6427 20.6711 19.1577C20.8611 18.8988 21.1135 18.5229 21.2393 18.2003C21.3571 17.8984 21.4105 17.5973 21.398 17.306V17.3056H21.3982Z" fill="white"/>
</g>
<defs>
<clipPath id="clip0">
<rect width="20.8" height="20.8" fill="white" transform="translate(0.600098 0.599976)"/>
</clipPath>
</defs>
</svg>

<svg width="22" height="22" viewBox="0 0 22 22" fill="none" xmlns="http://www.w3.org/2000/svg"><g clip-path="url(#clip0)" fill="#fff"><path d="M11 2.28c.239.18.448.2 1.073.235 1.83.105 2.99.496 4.282 1.443 1.58 1.157 2.571 2.77 2.947 4.794.097.524.145.968.177 1.639.02.45.036.624.138.82a.936.936 0 00.843.482.927.927 0 00.727-.334c.227-.277.226-.535.204-1.09-.065-1.72-.441-3.266-1.118-4.593-.482-.945-.943-1.564-1.761-2.366-.872-.848-1.545-1.323-2.572-1.813-1.088-.52-1.857-.684-2.984-.821-.228-.026-.656-.06-.953-.07-.566-.019-.787-.003-1.048.229a.932.932 0 00-.3.736.92.92 0 00.345.71z"/><path d="M16.705 9.717c0 .487.04.944.52 1.18.132.069.304.103.471.103a.924.924 0 00.404-.083c.195-.1.39-.31.467-.5.097-.247.053-1.128.025-1.376a6.746 6.746 0 00-1.115-3.032c-1.087-1.578-2.715-2.532-4.838-2.836-.72-.106-1.255-.144-1.57.337a.93.93 0 00.077 1.156c.232.264.566.324.86.347.844.067 1.789.343 2.409.704a4.65 4.65 0 011.727 1.755c.358.64.563 1.458.563 2.245z"/><path d="M14.858 6.74c-.474-.435-1.03-.707-1.747-.857a4.978 4.978 0 00-.616-.074c-.3-.019-.422-.015-.635.088a.93.93 0 00-.494.655.926.926 0 00.203.792c.216.247.438.309.885.362.746.09 1.167.34 1.405.839.12.254.188.533.228.934.04.375.114.616.382.814.168.127.38.19.591.19.23 0 .46-.076.626-.225l.002-.001c.345-.312.36-.698.266-1.301-.145-.966-.482-1.65-1.096-2.216z"/><path d="M21.398 17.306a1.7 1.7 0 00-.388-1.023c-.234-.28-1.726-1.48-2.392-1.943a20.407 20.407 0 00-1.72-1.059c-.565-.286-1.133-.336-1.693-.147-.122.041-.21.078-.292.122-.283.151-.49.39-.895.894-.433.531-.523.635-.522.635-.041.025-.106.06-.185.097-.322.149-.85.026-1.709-.4-.725-.355-1.375-.813-2.11-1.481-.626-.567-1.256-1.302-1.605-1.872-.485-.791-.779-1.707-.782-2.132 0-.165.071-.403.148-.534l.034-.036c.023-.022.048-.047.083-.078.12-.11.295-.258.477-.404.8-.639 1.052-.898 1.187-1.379.131-.444.016-.992-.36-1.722C8.11 3.754 6.328 1.436 5.585.947A2.575 2.575 0 005.12.716C4.815.606 4.376.569 4.104.628c-.377.078-.791.32-1.705.994-.5.372-1.272 1.1-1.481 1.448-.494.843-.368 1.574.08 2.799a23.432 23.432 0 001.624 3.494l.034.058c.131.23.265.46.406.69l.037.057c.14.226.28.452.429.676l.233.345a29.366 29.366 0 00.81 1.136c2.007 2.655 4.32 4.786 7.068 6.515l.113.072c.398.248.823.497 1.261.738l.171.093c.454.246.885.465 1.318.671l.135.063c.51.24.979.447 1.428.631.545.224.797.292 1.18.292.068 0 .14-.002.22-.006a2.76 2.76 0 00.678-.114c.295-.091.59-.244.928-.48a4.095 4.095 0 00.417-.326c.385-.34.827-.831 1.183-1.316.19-.26.442-.635.568-.958.118-.302.171-.603.159-.894z"/></g><defs><clipPath id="clip0"><path fill="#fff" transform="translate(.6 .6)" d="M0 0h20.8v20.8H0z"/></clipPath></defs></svg>
